src/assets/duotone/Vuesax.svg

<svg width="24" height="24" viewBox="0 0 24 24"  xmlns="http://www.w3.org/2000/svg">
<path d="M11.9998 22.7506C11.7498 22.7506 11.5098 22.6206 11.3698 22.4106L2.32981 8.4106C2.10981 8.0606 2.20981 7.60059 2.54981 7.37059C2.89981 7.15059 3.35982 7.24059 3.58982 7.59059L11.9898 20.6106L20.3598 7.59059C20.5798 7.24059 21.0498 7.1406 21.3998 7.3606C21.7498 7.5806 21.8498 8.05059 21.6298 8.40059L12.6298 22.4006C12.4898 22.6206 12.2598 22.7506 11.9998 22.7506Z" />
<path opacity="0.4" d="M3.91975 4H5.73972C5.90972 4 6.05974 4.08 6.15974 4.22L11.5997 12.37C11.7997 12.67 12.2297 12.67 12.4297 12.37L17.8697 4.22C17.9597 4.08 18.1197 4 18.2897 4H20.1097C20.5097 4 20.7397 4.44 20.5297 4.77L12.4497 17.35C12.2497 17.66 11.8097 17.66 11.6097 17.35L3.52973 4.77C3.27973 4.44 3.51975 4 3.91975 4Z" />
<path d="M8 3L11.58 8.38C11.78 8.68001 12.21 8.68001 12.41 8.38L16 3L13.2 4V2H10.8V4L8 3Z" />
</svg>

<?xml version="1.0" encoding="UTF-8"?>
<svg width="24" height="24" viewBox="0 0 24 24" xmlns="http://www.w3.org/2000/svg">
 <path d="m12 22.751c-0.25 0-0.49-0.13-0.63-0.34l-9.04-14c-0.22-0.35-0.12-0.81001 0.22-1.04 0.35-0.22 0.81001-0.13 1.04 0.22l8.4 13.02 8.37-13.02c0.22-0.35 0.69-0.44999 1.04-0.22999s0.45 0.68999 0.23 1.04l-9 14c-0.14 0.22-0.37 0.35-0.63 0.35z"/>
 <path d="m3.9198 4h1.82c0.17 0 0.32002 0.08 0.42002 0.22l5.44 8.15c0.2 0.3 0.63 0.3 0.83 0l5.44-8.15c0.09-0.14 0.25-0.22 0.42-0.22h1.82c0.4 0 0.63 0.44 0.42 0.77l-8.08 12.58c-0.2 0.31-0.64 0.31-0.84 0l-8.08-12.58c-0.25-0.33-0.00998-0.77 0.39002-0.77z" opacity=".4"/>
 <path d="m8 3 3.58 5.38c0.2 0.30001 0.63 0.30001 0.83 0l3.59-5.38-2.8 1v-2h-2.4v2l-2.8-1z"/>
</svg>
